X: 63
T: Worthy of Reverence
C: Teton Sioux band 1911-1914
N: Derived from sioux063.krn
O: South Dakota, U.S.A.
N: Teton Sioux Music by Frances Densmore, 1918
Z: transcribed to **kern format by Craig Sapp
L: 1/8
M: 2/4
Q: 1/4=58
K: F clef=bass
%%linebreak <none>
C/ [I:setbarnb 1]| 
(C A,/) A,// A,<< A, C// | 
(C2A,) (A, ||  
[M:3/4]G,2F,2)D,2 ||  
[M:2/4]C,3F,/ F,/ | 
F,> F,A,2 | 
A,2^G,7// A,// | 
A,>> A, (^G,3/ A,// G,//) | 
F,> F,D,2 | 
C,2A,,2 ||  
[M:3/4]A,,2F,,2A,,3/ A,,/ | 
C,2>A,,2A,,2 ||  
[M:2/4]A,, G,,F,,2 | 
F,,4 | 
F,,7/ :|]  



